cat-law-office.svg

<?xml version="1.0" encoding="UTF-8" standalone="no"?>
<!-- Created with Inkscape (http://www.inkscape.org/) -->

<svg
   width="210mm"
   height="297mm"
   viewBox="0 0 210 297"
   version="1.1"
   id="svg1"
   inkscape:version="1.3.2 (091e20ef0f, 2023-11-25)"
   sodipodi:docname="cat-law-office.svg"
   xmlns:inkscape="http://www.inkscape.org/namespaces/inkscape"
   xmlns:sodipodi="http://sodipodi.sourceforge.net/DTD/sodipodi-0.dtd"
   xmlns="http://www.w3.org/2000/svg"
   xmlns:svg="http://www.w3.org/2000/svg">
  <sodipodi:namedview
     id="namedview1"
     pagecolor="#505050"
     bordercolor="#eeeeee"
     borderopacity="1"
     inkscape:showpageshadow="0"
     inkscape:pageopacity="0"
     inkscape:pagecheckerboard="0"
     inkscape:deskcolor="#d1d1d1"
     inkscape:document-units="mm"
     inkscape:zoom="0.48931789"
     inkscape:cx="415.88506"
     inkscape:cy="483.32588"
     inkscape:window-width="1366"
     inkscape:window-height="743"
     inkscape:window-x="0"
     inkscape:window-y="25"
     inkscape:window-maximized="1"
     inkscape:current-layer="layer1" />
  <defs
     id="defs1" />
  <g
     inkscape:label="Layer 1"
     inkscape:groupmode="layer"
     id="layer1">
    <path
       id="rect12"
       style="fill:#333333;stroke:none;stroke-width:5.33919;stroke-linecap:round;stroke-linejoin:round;stroke-dasharray:none"
       d="M 18.604055,32.628512 H 188.23533 V 265.92987 H 18.604055 Z"
       sodipodi:insensitive="true" />
    <path
       id="path1"
       style="fill:#ffffff;stroke:none;stroke-width:0.169477;stroke-linecap:round;stroke-linejoin:round"
       d="m 85.286784,71.043726 c -0.02917,9.29e-4 -0.06047,0.01367 -0.09405,0.03824 -1.576745,1.153353 -3.165776,6.970209 -3.47214,9.732223 -0.180437,-0.02347 -0.360949,-0.03035 -0.541569,-0.04858 3.155861,1.833705 5.041386,4.842872 4.98632,5.137112 1.382769,4.259273 0.306687,6.892493 -4.693907,6.885194 C 78.00333,91.4279 75.202732,88.509177 72.813644,87.493364 l -2.074808,-1.01906 c -0.24837,0.28557 -0.506275,0.61129 -0.79375,1.042831 -0.131166,0.19689 -1.132123,-0.231715 -2.381767,-0.871782 -0.102228,0.142255 -0.213502,0.277895 -0.310575,0.423747 -3.047572,-2.036319 -7.714072,-3.183074 -9.75031,-1.461926 -1.085908,0.917877 4.194601,8.417612 6.011003,10.932666 -4.083546,-6.137538 -4.735847,-14.987399 3.516581,-6.250782 0.054,0.813425 -2.03624,7.556348 -1.842781,8.37675 0.61493,2.607782 1.048828,5.695502 2.076875,8.165912 l -4.027144,2.81533 4.473629,-1.85156 c 0.367275,0.69649 0.801984,1.31873 1.322916,1.8402 l -2.186946,3.00911 2.763139,-2.50527 c 0.233023,0.1777 0.477223,0.3432 0.742073,0.48266 0.486507,0.25617 1.056204,0.5047 1.656747,0.74517 l -1.403016,2.63757 1.624191,-2.55282 c 3.04397,1.18109 7.180129,2.02769 10.032979,1.35496 0.682091,-0.16085 3.305308,-0.4069 6.818189,-2.76159 3.831775,-2.56843 6.978202,-6.3947 7.590751,-7.96386 0.569808,-1.45964 0.804516,-4.708356 -0.07855,-9.929109 l 3.83749,-2.624646 -3.977533,1.803507 c -0.02294,-0.124163 -0.03835,-0.233915 -0.06253,-0.360185 -0.112831,-0.589121 -0.347653,-1.111424 -0.68833,-1.600419 l 3.465421,-2.9993 -4.349088,1.984375 0.0021,0.02636 c -0.386077,-0.35401 -0.833101,-0.702052 -1.34982,-1.053683 l 1.275375,-2.23914 -1.762167,1.922363 C 90.89885,85.672588 87.919611,84.19044 84.126131,81.80741 c -0.47644,-11.423887 6.735447,-4.137055 7.583517,3.33778 0.239055,-4.718207 -3.699915,-11.062374 -3.482475,-13.416752 -0.413687,0.761224 -1.19543,1.887267 -1.87017,1.833997 -0.652612,-0.05153 -0.632592,-2.53265 -1.070219,-2.518709 z m -2.76779,26.319323 c 0.284159,-0.0039 1.180118,-0.04282 1.261939,0.927076 0.06506,0.771155 -0.4055,1.090878 -0.161748,2.588475 0.281249,1.72792 -1.200489,1.1404 -1.637109,0.97616 -0.959307,-0.3608 -1.724396,0.28912 -2.554883,0.26717 -0.30961,-0.008 -0.86189,-0.63993 -0.863513,-1.47846 -0.0016,-0.838525 2.420855,-3.258679 3.955314,-3.280421 z m 6.216675,2.148706 c 0,0 -0.488854,2.285065 -1.333769,2.914035 -0.819227,0.60985 -2.932991,0.44232 -3.061828,0.4315 -0.02837,0.12959 -0.509044,2.27965 -1.328601,2.88974 -0.844918,0.62897 -3.0856,0.42995 -3.0856,0.42995 l 2.506823,-1.15032 1.892908,-2.17041 c -6.27e-4,-5e-5 -0.0093,-5.1e-4 -0.0093,-5.1e-4 l 0.01705,-0.008 0.0124,-0.0145 c 0,0 -0.0019,0.009 -0.0021,0.01 l 2.478918,-1.13843 z"
       sodipodi:nodetypes="scccccccsccsccsccccccscccssscccsccccccccccsscssccsccscsccccccccc" />
    <path
       id="path7"
       style="fill:#ffffff;stroke:none;stroke-width:0.296592;stroke-linecap:round;stroke-linejoin:round"
       d="M 104.48613 101.8868 C 102.95421 101.88748 101.42364 101.9671 99.898295 102.1302 C 98.81551 102.1603 101.54257 103.56415 90.778438 112.95435 C 90.778438 112.95435 94.497887 112.58435 95.418982 116.1433 C 96.895007 121.84638 90.187355 123.57033 88.26748 119.24647 C 86.861827 116.08073 89.063814 114.02301 89.063814 114.02301 C 86.396638 115.2939 83.43074 115.43993 80.507231 115.40278 C 77.572609 117.97411 77.0697 119.86039 71.54137 123.67772 L 71.218909 122.01529 L 68.158114 126.47807 C 65.328357 128.50422 62.188924 131.60678 60.404582 135.76432 L 66.609888 139.284 C 73.560357 131.57812 85.645376 129.76532 89.235897 131.26331 C 89.142617 132.20897 89.819291 132.21953 89.947481 133.20789 L 87.012777 132.9154 L 89.663261 136.05423 C 89.810058 136.6811 89.979734 137.3131 90.178475 137.95127 L 87.979643 139.33 L 92.536471 142.81816 C 93.696776 145.29904 97.271776 153.54631 95.155949 159.83004 C 95.141479 160.91495 95.68175 161.56179 96.922766 162.06918 C 99.777031 162.72994 100.79381 163.12064 102.79062 160.74936 L 104.9414 152.07547 L 108.26213 158.63941 C 119.55048 161.25449 129.49068 159.47329 139.84573 157.41055 C 139.96364 158.41306 139.41006 160.17731 139.09797 161.08629 C 144.67786 161.77453 150.25814 160.8514 155.83803 159.38769 C 158.6412 154.3451 159.28315 151.1894 157.22865 144.05684 C 153.84125 131.58909 147.48988 122.06403 137.64845 114.52634 L 139.8111 112.35955 L 133.73034 111.45676 C 128.53013 107.8886 122.83462 105.20265 116.93963 103.59936 L 118.05998 102.5834 L 114.5682 103.01593 C 111.23857 102.28212 107.86095 101.8853 104.48613 101.8868 z M 114.90565 104.97447 C 122.18906 104.85425 136.87766 116.24048 140.08706 120.7611 C 147.151 130.71108 142.51393 138.12374 139.96562 140.64723 C 137.42095 143.1671 125.52756 126.35507 123.43329 127.99736 C 117.87049 132.35961 115.86602 128.40165 113.81062 127.82941 C 111.75524 127.25717 107.22762 125.49833 104.24067 121.22361 C 101.25369 116.94887 105.4995 112.01383 105.4995 112.01383 C 105.4995 112.01383 107.20236 109.81018 112.29289 105.78372 C 112.97608 105.24334 113.86516 104.99165 114.90565 104.97447 z M 121.39672 145.87223 C 121.6401 145.86782 121.87803 145.88544 122.10883 145.92804 C 127.03233 146.83679 129.90809 148.56861 130.69693 153.0196 C 131.38903 156.92481 115.9322 156.7911 112.66392 156.0804 C 109.21709 155.33087 116.44808 145.96205 121.39672 145.87223 z " />
    <path
       id="path9"
       style="fill:#ffffff;stroke:none;stroke-width:0.412313;stroke-linecap:round;stroke-linejoin:round"
       d="m 75.812897,161.71 0.107595,6.5032 c 0.543891,-0.007 1.116081,0.0198 1.726033,0.12346 2.903223,0.49323 7.418184,2.37529 10.375093,3.66435 6.705241,2.92321 14.198312,6.17169 22.832902,6.37133 l -1.79852,-2.20059 6.96287,1.82456 c 3.94619,-0.0271 4.13328,-0.1174 7.48869,-1.22315 5.06511,-1.66927 15.66328,-6.67292 14.83323,-13.72105 -14.92591,2.66555 -21.7184,2.46887 -34.75621,0.52777 -3.599717,4.77534 -10.05862,1.24433 -10.018693,-1.75889 z m 80.065703,0.20273 c -3.02581,10.06444 -9.08698,16.09793 -21.73215,19.12373 l -7.82106,2.87639 1.81097,-1.84041 c -16.10146,4.3104 -38.55133,0.64479 -52.14565,-9.60077 l -0.391867,4.16898 1.908376,7.73203 6.780679,1.17786 v 25.3242 l 4.334334,-1.29452 1.970667,-4.90967 -0.129754,6.23234 -2.380255,0.74984 -0.368977,2.24936 -1.773353,-1.4932 -1.618867,0.62855 -0.03379,10.30914 h 9.024295 v -37.07119 l 6.171358,0.0623 v 37.0089 h 8.952944 l 0.017,-35.39385 h 12.87389 l 0.22651,35.39385 h 9.75479 l 0.11438,-36.95453 h 8.47275 l -0.2435,36.95453 h 11.78323 v -20.04984 l -2.06128,1.50632 -3.68875,-3.80203 -2.33311,1.70905 3.1995,-2.96507 1.9367,2.89485 2.94694,-1.28208 v -16.69744 l 5.90066,-0.89132 2.72723,-9.71404 -0.72371,-12.13317 z"
       sodipodi:nodetypes="cccccccccccccccccccccccccccccccccccccccccccccccccccccc" />
    <path
       id="path10"
       style="fill:#ffffff;stroke:none;stroke-width:1.05418;stroke-linecap:round;stroke-linejoin:round;stroke-dasharray:none"
       d="m 46.90185,121.74851 c -0.351304,-0.006 -0.719403,0.002 -1.105386,0.0226 0,0 -8.54192,13.83793 -8.128435,14.07667 2.375025,6.04348 6.10575,5.47102 9.3618,5.40461 0.984367,-1.70274 2.021952,-3.33368 3.064728,-4.9663 l 20.84603,11.20676 c 2.054513,-0.45031 2.229755,-1.71582 2.095249,-3.11571 L 52.329112,132.74346 c 0.962707,-1.5612 1.906189,-3.16794 2.794042,-4.88476 -1.459149,-3.02472 -2.951727,-6.02313 -8.221304,-6.1102 z"
       sodipodi:nodetypes="sccccccccs" />
    <path
       style="fill:#ffffff;stroke:none;stroke-width:1.05418;stroke-linecap:round;stroke-linejoin:round;stroke-dasharray:none"
       d="m 58.027313,142.00627 c 0,0 -0.326532,2.18749 1.396525,3.14222 1.723056,0.9547 3.277495,-0.33526 3.277495,-0.33526 z"
       id="path12"
       sodipodi:nodetypes="czcc" />
    <path
       id="path4"
       style="fill:#ffffff;stroke:none;stroke-width:0.277461;stroke-linecap:round;stroke-linejoin:round;stroke-dasharray:none"
       d="m 93.983466,75.121615 c -0.383991,0.0024 -0.802244,0.129237 -1.235067,0.420646 -0.633836,0.426747 -0.694144,1.019549 -0.723986,1.699638 l -1.834514,-0.08165 -1.711006,-1.194242 1.342037,2.858223 1.83813,4.946468 c 0,0 1.375615,0.984666 1.961638,1.141016 3.33921,0.890897 5.394284,-0.966795 5.914884,-3.095935 0.586718,-1.398967 0.927828,-2.477431 0.377239,-4.291211 l -0.667659,1.404565 c -0.54473,-1.054844 -1.626915,-1.823119 -3.292307,-1.847949 -0.126488,-1.040484 -0.918721,-1.966228 -1.969389,-1.95957 z" />
    <path
       id="path4-7"
       style="fill:#ffffff;stroke:none;stroke-width:0.277461;stroke-linecap:round;stroke-linejoin:round;stroke-dasharray:none"
       d="m 59.422101,90.109748 0.02222,1.16272 -1.241268,2.044837 c -0.581621,-0.353701 -1.107036,-0.633739 -1.814359,-0.344682 -2.015336,0.823616 -1.512164,3.031194 -0.09198,3.805452 -3.529598,5.053915 5.397133,9.304305 7.696171,2.582277 0.196276,-0.57388 0.143143,-2.264467 0.143143,-2.264467 l -3.086116,-4.280359 z" />
    <path
       id="path3"
       style="fill:#ffffff;stroke:none;stroke-width:0.339758;stroke-linecap:round;stroke-linejoin:round;stroke-dasharray:none"
       d="m 64.282564,79.012829 -0.01878,0.01252 c -3.221934,0.933021 -3.935726,0.506404 -6.978746,-0.529682 2.146378,1.877423 2.982016,2.597101 4.884027,2.77313 -0.29532,0.341374 -1.374376,2.390932 -1.674609,2.760155 0,0 3.96465,-0.08385 6.309197,2.072159 0.245042,0.225338 0.384592,-0.539141 0.685267,-0.399407 1.835523,0.853035 1.686357,1.007674 1.869541,0.732692 1.624321,-2.438315 2.644046,-2.267842 3.667958,-2.647904 0.180532,-0.06701 1.136784,-0.240667 1.516129,-0.413876 0.412602,-0.188394 0.861747,-0.808608 1.033952,-0.895439 2.218399,-1.118596 2.870559,-1.717098 4.861725,-1.826747 0.106035,-1.145374 0.554979,-0.772846 0.554979,-0.772846 0,0 0.955062,-5.873484 1.980675,-7.266423 -5.031268,-0.580148 -12.253751,0.104936 -18.691315,6.401668 z"
       sodipodi:nodetypes="cccccsssssscccc" />
    <path
       style="fill:#ffffff;stroke:none;stroke-width:0.4;stroke-linecap:round;stroke-linejoin:round;stroke-dasharray:none"
       d="m 74.635628,167.95099 c 0.19748,1.40972 0.378041,2.81742 -0.221693,4.1321 0,0 -2.653499,-0.44047 -4.74139,-2.10959 -2.08789,-1.66912 -2.845022,-3.07216 -2.033942,-3.53201 0.811078,-0.45984 6.997023,1.5095 6.997023,1.5095 z"
       id="path11"
       sodipodi:nodetypes="ccsscc" />
  </g>
</svg>

<?xml version="1.0" encoding="UTF-8" standalone="no"?>
<!-- Created with Inkscape (http://www.inkscape.org/) -->

<svg
   width="210mm"
   height="297mm"
   viewBox="0 0 210 297"
   version="1.1"
   id="svg1"
   inkscape:version="1.3.2 (091e20ef0f, 2023-11-25)"
   sodipodi:docname="cat-law-office.svg"
   xmlns:inkscape="http://www.inkscape.org/namespaces/inkscape"
   xmlns:sodipodi="http://sodipodi.sourceforge.net/DTD/sodipodi-0.dtd"
   xmlns="http://www.w3.org/2000/svg"
   xmlns:svg="http://www.w3.org/2000/svg">
  <sodipodi:namedview
     id="namedview1"
     pagecolor="#505050"
     bordercolor="#eeeeee"
     borderopacity="1"
     inkscape:showpageshadow="0"
     inkscape:pageopacity="0"
     inkscape:pagecheckerboard="0"
     inkscape:deskcolor="#d1d1d1"
     inkscape:document-units="mm"
     inkscape:zoom="0.692"
     inkscape:cx="295.52023"
     inkscape:cy="513.72832"
     inkscape:window-width="1366"
     inkscape:window-height="743"
     inkscape:window-x="0"
     inkscape:window-y="25"
     inkscape:window-maximized="1"
     inkscape:current-layer="layer1" />
  <defs
     id="defs1" />
  <g
     inkscape:label="Layer 1"
     inkscape:groupmode="layer"
     id="layer1">
    <path
       id="rect12"
       style="fill:#333333;stroke:none;stroke-width:5.33919;stroke-linecap:round;stroke-linejoin:round;stroke-dasharray:none"
       d="M 18.604055,32.628512 H 188.23533 V 265.92987 H 18.604055 Z"
       sodipodi:insensitive="true" />
    <path
       id="path1"
       style="fill:#ffffff;stroke:none;stroke-width:0.169477;stroke-linecap:round;stroke-linejoin:round"
       d="M 85.286784 71.043726 C 85.257614 71.044655 85.226313 71.057396 85.192733 71.081966 C 83.615988 72.235319 82.026957 78.052175 81.720593 80.814189 C 81.540156 80.790719 81.359644 80.783843 81.179024 80.765613 C 81.130964 81.112909 81.080094 81.438756 81.025028 81.732996 C 80.398612 81.767496 79.812521 81.896174 79.234957 82.085429 L 79.388436 84.756067 L 78.487199 82.373783 C 78.012758 82.571193 77.536285 82.791466 77.038192 83.04506 L 77.436617 84.496651 L 76.280098 83.428499 C 75.653156 83.754614 75.580285 84.311077 74.825924 84.663566 C 74.27159 84.922586 73.222294 84.872387 72.798657 85.041321 L 73.928821 86.680497 L 72.127897 85.343628 C 71.82006 85.505115 71.519886 85.701026 71.205473 85.98855 L 72.813643 87.493368 L 70.738835 86.474308 C 70.490465 86.759878 70.23256 87.085598 69.945085 87.517139 C 69.813919 87.714029 68.812962 87.285424 67.563318 86.645357 C 67.46109 86.787612 67.349816 86.923252 67.252743 87.069104 C 64.205171 85.032785 59.538671 83.88603 57.502433 85.607178 C 56.416525 86.525055 61.697034 94.02479 63.513436 96.539844 C 59.42989 90.402306 58.777589 81.552445 67.030017 90.289062 C 67.084017 91.102487 64.993777 97.84541 65.187236 98.665812 C 65.802166 101.27359 66.236064 104.36131 67.264111 106.83172 L 63.236967 109.64705 L 67.710596 107.79549 C 68.077871 108.49198 68.51258 109.11422 69.033512 109.63569 L 66.846566 112.6448 L 69.609705 110.13953 C 69.842728 110.31723 70.086928 110.48273 70.351778 110.62219 C 70.838285 110.87836 71.407982 111.12689 72.008525 111.36736 L 70.605509 114.00493 L 72.2297 111.45211 C 75.27367 112.6332 79.409829 113.4798 82.262679 112.80707 C 82.94477 112.64622 85.567987 112.40017 89.080868 110.04548 C 92.912643 107.47705 96.05907 103.65078 96.671619 102.08162 C 97.241427 100.62198 97.476135 97.373268 96.59307 92.152515 L 100.43056 89.527869 L 96.453027 91.331376 C 96.430087 91.207213 96.414679 91.097461 96.390499 90.971191 C 96.277668 90.38207 96.042846 89.859767 95.702169 89.370772 L 99.16759 86.371472 L 94.818502 88.355847 L 94.820569 88.382202 C 94.434523 88.028193 93.987499 87.680151 93.47078 87.32852 L 94.746155 85.08938 L 92.983988 87.011743 C 90.89885 85.672588 87.919611 84.19044 84.126131 81.80741 C 83.649691 70.383523 90.861578 77.670355 91.709648 85.14519 C 91.948703 80.426983 88.009733 74.082816 88.227173 71.728438 C 87.813486 72.489662 87.031743 73.615705 86.357003 73.562435 C 85.704391 73.510905 85.724411 71.029785 85.286784 71.043726 z M 82.518994 97.363049 C 82.803153 97.359149 83.699112 97.320229 83.780933 98.290125 C 83.845993 99.06128 83.375433 99.381003 83.619185 100.8786 C 83.900434 102.60652 82.418696 102.019 81.982076 101.85476 C 81.022769 101.49396 80.25768 102.14388 79.427193 102.12193 C 79.117583 102.11393 78.565303 101.482 78.56368 100.64347 C 78.56208 99.804945 80.984535 97.384791 82.518994 97.363049 z M 88.735669 99.511755 C 88.735669 99.511755 88.246815 101.79682 87.4019 102.42579 C 86.582673 103.03564 84.468909 102.86811 84.340072 102.85729 C 84.311705 102.98688 83.831028 105.13694 83.011471 105.74703 C 82.166553 106.376 79.925871 106.17698 79.925871 106.17698 L 82.432694 105.02666 L 84.325602 102.85625 C 84.324975 102.8562 84.3163 102.85574 84.3163 102.85574 L 84.333354 102.84799 L 84.345756 102.83352 C 84.345756 102.83352 84.343837 102.84265 84.343689 102.84333 L 86.822607 101.7049 L 88.735669 99.511755 z " />
    <path
       id="path7"
       style="fill:#ffffff;stroke:none;stroke-width:0.296592;stroke-linecap:round;stroke-linejoin:round"
       d="m 104.4861,101.88668 c -1.53192,6.8e-4 -3.06268,0.0804 -4.588031,0.2435 -1.082787,0.0301 1.644721,1.43372 -9.11943,10.82394 0,0 3.71903,-0.36964 4.640127,3.18931 1.476029,5.7031 -5.231152,7.42711 -7.151029,3.10323 -1.405657,-3.16574 0.796196,-5.2234 0.796196,-5.2234 -2.667182,1.27089 -5.63303,1.41662 -8.556545,1.37947 -2.934628,2.57135 -3.437812,4.45758 -8.966154,8.27493 l -0.322431,-1.66237 -3.060927,4.46282 c -2.829761,2.02615 -5.968981,5.1288 -7.753327,9.28636 l 6.205108,3.51957 c 6.950483,-7.7059 19.035899,-9.51882 22.626426,-8.02083 -0.09328,0.94568 0.583094,0.95608 0.711284,1.94444 l -2.934517,-0.29203 2.650206,3.13835 c 0.146797,0.62687 0.316577,1.25888 0.515318,1.89705 l -2.198842,1.37896 4.556714,3.488 c 1.160309,2.4809 4.735591,10.72823 2.61976,17.01196 -0.01447,1.08491 0.525786,1.73171 1.766804,2.2391 2.854271,0.66076 3.871,1.05182 5.86783,-1.31946 l 2.15075,-8.67432 3.32068,6.56435 c 11.28839,2.61508 21.22883,0.83392 31.5839,-1.22884 0.11791,1.00251 -0.43577,2.7663 -0.74786,3.67528 5.57991,0.68824 11.15981,-0.23483 16.73972,-1.69854 2.80317,-5.04259 3.44531,-8.19824 1.39079,-15.33082 -3.3874,-12.46777 -9.7386,-21.99254 -19.58005,-29.53023 l 2.16229,-2.16694 -6.08075,-0.90265 c -5.20021,-3.56818 -10.89532,-6.25446 -16.79031,-7.85775 l 1.12011,-1.01591 -3.4917,0.43264 c -3.32963,-0.73381 -6.70729,-1.13067 -10.08211,-1.12917 z"
       sodipodi:nodetypes="sccsscccccccccccccccccccccccccccccs" />
    <path
       id="path9"
       style="fill:#ffffff;stroke:none;stroke-width:0.412313;stroke-linecap:round;stroke-linejoin:round"
       d="m 75.812897,161.71 0.107595,6.5032 c 0.543891,-0.007 1.116081,0.0198 1.726033,0.12346 2.903223,0.49323 7.418184,2.37529 10.375093,3.66435 6.705241,2.92321 14.198312,6.17169 22.832902,6.37133 l -1.79852,-2.20059 6.96287,1.82456 c 3.94619,-0.0271 4.13328,-0.1174 7.48869,-1.22315 5.06511,-1.66927 15.66328,-6.67292 14.83323,-13.72105 -14.92591,2.66555 -21.7184,2.46887 -34.75621,0.52777 -3.599717,4.77534 -10.05862,1.24433 -10.018693,-1.75889 z m 80.065703,0.20273 c -3.02581,10.06444 -9.08698,16.09793 -21.73215,19.12373 l -7.82106,2.87639 1.81097,-1.84041 c -16.10146,4.3104 -38.55133,0.64479 -52.14565,-9.60077 l -0.391867,4.16898 1.908376,7.73203 6.780679,1.17786 v 25.3242 l 4.334334,-1.29452 1.970667,-4.90967 -0.129754,6.23234 -2.380255,0.74984 -0.368977,2.24936 -1.773353,-1.4932 -1.618867,0.62855 -0.03379,10.30914 h 9.024295 v -37.07119 l 6.171358,0.0623 v 37.0089 h 8.952944 l 0.017,-35.39385 h 12.87389 l 0.22651,35.39385 h 9.75479 l 0.11438,-36.95453 h 8.47275 l -0.2435,36.95453 h 11.78323 v -20.04984 l -2.06128,1.50632 -3.68875,-3.80203 -2.33311,1.70905 3.1995,-2.96507 1.9367,2.89485 2.94694,-1.28208 v -16.69744 l 5.90066,-0.89132 2.72723,-9.71404 -0.72371,-12.13317 z"
       sodipodi:nodetypes="cccccccccccccccccccccccccccccccccccccccccccccccccccccc" />
    <path
       id="path10"
       style="fill:#ffffff;stroke:none;stroke-width:1.05418;stroke-linecap:round;stroke-linejoin:round;stroke-dasharray:none"
       d="m 46.90185,121.74851 c -0.351304,-0.006 -0.719403,0.002 -1.105386,0.0226 0,0 -8.54192,13.83793 -8.128435,14.07667 2.375025,6.04348 6.10575,5.47102 9.3618,5.40461 0.984367,-1.70274 2.021952,-3.33368 3.064728,-4.9663 l 20.84603,11.20676 c 2.054513,-0.45031 2.229755,-1.71582 2.095249,-3.11571 L 52.329112,132.74346 c 0.962707,-1.5612 1.906189,-3.16794 2.794042,-4.88476 -1.459149,-3.02472 -2.951727,-6.02313 -8.221304,-6.1102 z"
       sodipodi:nodetypes="sccccccccs" />
    <path
       style="fill:#ffffff;stroke:none;stroke-width:1.05418;stroke-linecap:round;stroke-linejoin:round;stroke-dasharray:none"
       d="m 58.027313,142.00627 c 0,0 -0.326532,2.18749 1.396525,3.14222 1.723056,0.9547 3.277495,-0.33526 3.277495,-0.33526 z"
       id="path12"
       sodipodi:nodetypes="czcc" />
    <path
       id="path4"
       style="fill:#ffffff;stroke:none;stroke-width:0.277461;stroke-linecap:round;stroke-linejoin:round;stroke-dasharray:none"
       d="m 93.983466,75.121615 c -0.383991,0.0024 -0.802244,0.129237 -1.235067,0.420646 -0.633836,0.426747 -0.694144,1.019549 -0.723986,1.699638 l -1.834514,-0.08165 -1.711006,-1.194242 1.342037,2.858223 1.83813,4.946468 c 0,0 1.375615,0.984666 1.961638,1.141016 3.33921,0.890897 5.394284,-0.966795 5.914884,-3.095935 0.586718,-1.398967 0.927828,-2.477431 0.377239,-4.291211 l -0.667659,1.404565 c -0.54473,-1.054844 -1.626915,-1.823119 -3.292307,-1.847949 -0.126488,-1.040484 -0.918721,-1.966228 -1.969389,-1.95957 z" />
    <path
       id="path4-7"
       style="fill:#ffffff;stroke:none;stroke-width:0.277461;stroke-linecap:round;stroke-linejoin:round;stroke-dasharray:none"
       d="m 59.422101,90.109748 0.02222,1.16272 -1.241268,2.044837 c -0.581621,-0.353701 -1.107036,-0.633739 -1.814359,-0.344682 -2.015336,0.823616 -1.512164,3.031194 -0.09198,3.805452 -3.529598,5.053915 5.397133,9.304305 7.696171,2.582277 0.196276,-0.57388 0.143143,-2.264467 0.143143,-2.264467 l -3.086116,-4.280359 z" />
    <path
       id="path3"
       style="fill:#ffffff;stroke:none;stroke-width:0.339758;stroke-linecap:round;stroke-linejoin:round;stroke-dasharray:none"
       d="m 64.282564,79.012829 -0.01878,0.01252 c -3.221934,0.933021 -3.935726,0.506404 -6.978746,-0.529682 2.146378,1.877423 2.982016,2.597101 4.884027,2.77313 -0.29532,0.341374 -1.374376,2.390932 -1.674609,2.760155 0,0 3.96465,-0.08385 6.309197,2.072159 0.245042,0.225338 0.384592,-0.539141 0.685267,-0.399407 1.835523,0.853035 1.686357,1.007674 1.869541,0.732692 1.624321,-2.438315 2.644046,-2.267842 3.667958,-2.647904 0.180532,-0.06701 1.136784,-0.240667 1.516129,-0.413876 0.412602,-0.188394 0.861747,-0.808608 1.033952,-0.895439 2.218399,-1.118596 2.870559,-1.717098 4.861725,-1.826747 0.106035,-1.145374 0.554979,-0.772846 0.554979,-0.772846 0,0 0.955062,-5.873484 1.980675,-7.266423 -5.031268,-0.580148 -12.253751,0.104936 -18.691315,6.401668 z"
       sodipodi:nodetypes="cccccsssssscccc" />
    <path
       style="fill:#ffffff;stroke:none;stroke-width:0.4;stroke-linecap:round;stroke-linejoin:round;stroke-dasharray:none"
       d="m 74.635628,167.95099 c 0.19748,1.40972 0.378041,2.81742 -0.221693,4.1321 0,0 -2.653499,-0.44047 -4.74139,-2.10959 -2.08789,-1.66912 -2.845022,-3.07216 -2.033942,-3.53201 0.811078,-0.45984 6.997023,1.5095 6.997023,1.5095 z"
       id="path11"
       sodipodi:nodetypes="ccsscc" />
  </g>
</svg>
